flaticon/interaction/video-player-13.svg

<svg xmlns="http://www.w3.org/2000/svg" width="32" height="32" viewBox="0 0 24 24">
    <path d="M12 23.171875L21.929688 23.171875 21.929688 13.242188 12 13.242188zM12.828125 14.070312L21.101562 14.070312 21.101562 22.34375 17.378906 22.34375 17.378906 17.136719 19.15625 18.914062 19.742188 18.328125 16.964844 15.554688 14.191406 18.328125 14.773438 18.914062 16.550781 17.136719 16.550781 22.34375 12.828125 22.34375zM15.308594 10.34375C15.308594 10.203125 15.238281 10.070312 15.117188 9.996094L10.566406 7.097656C10.4375 7.019531 10.277344 7.011719 10.144531 7.085938 10.011719 7.160156 9.929688 7.296875 9.929688 7.449219L9.929688 13.242188C9.929688 13.390625 10.011719 13.53125 10.144531 13.605469 10.207031 13.636719 10.277344 13.65625 10.34375 13.65625 10.421875 13.65625 10.5 13.632812 10.566406 13.589844L15.117188 10.695312C15.238281 10.617188 15.308594 10.488281 15.308594 10.34375zM10.757812 12.488281L10.757812 8.203125 14.125 10.34375zM10.757812 12.488281"/>
    <path d="M 23.585938 0.828125 L 0.414062 0.828125 C 0.183594 0.828125 0 1.011719 0 1.242188 L 0 19.449219 C 0 19.675781 0.183594 19.863281 0.414062 19.863281 L 9.929688 19.863281 C 10.160156 19.863281 10.34375 19.675781 10.34375 19.449219 C 10.34375 19.21875 10.160156 19.035156 9.929688 19.035156 L 4.964844 19.035156 L 4.964844 1.65625 L 19.035156 1.65625 L 19.035156 10.34375 C 19.035156 10.574219 19.21875 10.757812 19.449219 10.757812 L 23.171875 10.757812 L 23.171875 13.242188 C 23.171875 13.46875 23.359375 13.65625 23.585938 13.65625 C 23.816406 13.65625 24 13.46875 24 13.242188 L 24 1.242188 C 24 1.011719 23.816406 0.828125 23.585938 0.828125 Z M 0.828125 10.757812 L 4.136719 10.757812 L 4.136719 14.484375 L 0.828125 14.484375 Z M 4.136719 9.929688 L 0.828125 9.929688 L 0.828125 6.207031 L 4.136719 6.207031 Z M 0.828125 19.035156 L 0.828125 15.308594 L 4.136719 15.308594 L 4.136719 19.035156 Z M 4.136719 5.378906 L 0.828125 5.378906 L 0.828125 1.65625 L 4.136719 1.65625 Z M 23.171875 1.65625 L 23.171875 5.378906 L 19.863281 5.378906 L 19.863281 1.65625 Z M 19.863281 9.929688 L 19.863281 6.207031 L 23.171875 6.207031 L 23.171875 9.929688 Z M 19.863281 9.929688"/>
</svg>

<svg xmlns="http://www.w3.org/2000/svg" width="32" height="32" viewBox="0 0 24 24">
    <path d="M12 23.172h9.93v-9.93H12zm.828-9.102h8.274v8.274h-3.723v-5.207l1.777 1.777.586-.586-2.777-2.773-2.774 2.773.582.586 1.778-1.777v5.207h-3.723zm0 0M15.309 10.344c0-.14-.07-.274-.192-.348l-4.55-2.898a.414.414 0 1 0-.637.352v5.792c0 .149.082.29.215.363a.413.413 0 0 0 .422-.016l4.55-2.894a.413.413 0 0 0 .192-.351zm-4.551 2.144V8.203l3.367 2.14zm0 0"/>
    <path d="M23.586.828H.414A.412.412 0 0 0 0 1.242V19.45c0 .227.184.414.414.414H9.93a.414.414 0 0 0 0-.828H4.965V1.656h14.07v8.688c0 .23.184.414.414.414h3.723v2.484a.414.414 0 0 0 .828 0v-12a.412.412 0 0 0-.414-.414zM.828 10.758h3.309v3.726H.828zm3.309-.828H.828V6.207h3.309zM.828 19.035V15.31h3.309v3.726zM4.137 5.38H.828V1.656h3.309zm19.035-3.723V5.38h-3.309V1.656zM19.863 9.93V6.207h3.309V9.93zm0 0"/>
</svg>
